;FLAVOR:Marlin
;TIME:3870
;Filament used: 2.47361m
;Layer height: 0.2
;MINX:39.519
;MINY:26.788
;MINZ:0.2
;MAXX:187.685
;MAXY:157.101
;MAXZ:5
;Generated with Cura_SteamEngine 4.7.1
M140 S80
M105
M190 S80
M104 S250
M105
M109 S250
M82 ;absolute extrusion mode
; Ender 3 Custom Start G-code
G92 E0 ; Reset Extruder
G28 ; Home all axes
G1 Z2.0 F3000 ; Move Z Axis up little to prevent scratching of Heat Bed
G1 X0.1 Y20 Z0.3 F5000.0 ; Move to start position
G1 X0.1 Y200.0 Z0.3 F1500.0 E15 ; Draw the first line
G1 X0.4 Y200.0 Z0.3 F5000.0 ; Move to side a little
G1 X0.4 Y20 Z0.3 F1500.0 E30 ; Draw the second line
G92 E0 ; Reset Extruder
G1 Z2.0 F3000 ; Move Z Axis up little to prevent scratching of Heat Bed
G1 X5 Y20 Z0.3 F5000.0 ; Move over to prevent blob squish
G92 E0
G92 E0
G1 F1500 E-6.5
;LAYER_COUNT:25
;LAYER:0
M107
G0 F6000 X154.173 Y43.32 Z0.2
;TYPE:SKIRT
G1 F1500 E0
G1 F1200 X154.447 Y42.58 E0.02625
G1 X154.795 Y41.871 E0.05251
G1 X155.213 Y41.2 E0.07881
G1 X155.696 Y40.576 E0.10505
G1 X156.101 Y40.139 E0.12487
G1 X156.218 Y40.022 E0.13037
G1 X156.804 Y39.492 E0.15665
G1 X157.44 Y39.025 E0.1829
G1 X158.12 Y38.624 E0.20915
G1 X158.838 Y38.294 E0.23544
G1 X159.585 Y38.039 E0.26169
G1 X160.354 Y37.86 E0.28795
G1 X161.138 Y37.76 E0.31424
G1 X161.733 Y37.737 E0.33404
G1 X165.799 Y37.737 E0.46928
G1 X166.588 Y37.777 E0.49555
G1 X167.368 Y37.896 E0.5218
G1 X168.133 Y38.094 E0.54808
G1 X168.873 Y38.368 E0.57432
G1 X169.582 Y38.716 E0.60059
G1 X170.253 Y39.134 E0.62689
G1 X170.877 Y39.617 E0.65313
G1 X171.314 Y40.022 E0.67295
G1 X171.431 Y40.139 E0.67845
G1 X171.961 Y40.725 E0.70473
G1 X172.428 Y41.361 E0.73098
G1 X172.829 Y42.041 E0.75723
G1 X173.159 Y42.759 E0.78351
G1 X173.414 Y43.506 E0.80977
G1 X173.593 Y44.275 E0.83603
G1 X173.693 Y45.059 E0.86232
G1 X173.716 Y45.654 E0.88212
G1 X173.716 Y62.42 E1.43976
G1 X173.676 Y63.209 E1.46604
G1 X173.557 Y63.989 E1.49228
G1 X173.359 Y64.754 E1.51856
G1 X173.085 Y65.494 E1.54481
G1 X172.737 Y66.203 E1.57108
G1 X172.319 Y66.874 E1.59737
G1 X171.836 Y67.498 E1.62361
G1 X171.431 Y67.935 E1.64343
G1 X171.314 Y68.052 E1.64893
G1 X170.728 Y68.582 E1.67521
G1 X170.092 Y69.049 E1.70146
G1 X169.412 Y69.45 E1.72771
G1 X168.694 Y69.78 E1.754
G1 X167.947 Y70.035 E1.78025
G1 X167.178 Y70.214 E1.80651
G1 X166.394 Y70.314 E1.8328
G1 X165.799 Y70.337 E1.8526
G1 X161.733 Y70.337 E1.98784
G1 X160.944 Y70.297 E2.01411
G1 X160.164 Y70.178 E2.04036
G1 X159.399 Y69.98 E2.06664
G1 X158.659 Y69.706 E2.09288
G1 X157.95 Y69.358 E2.11915
G1 X157.279 Y68.94 E2.14545
G1 X156.655 Y68.457 E2.17169
G1 X156.218 Y68.052 E2.19151
G1 X156.101 Y67.935 E2.19701
G1 X155.571 Y67.349 E2.22329
G1 X155.104 Y66.713 E2.24954
G1 X154.703 Y66.033 E2.27579
G1 X154.373 Y65.315 E2.30207
G1 X154.118 Y64.568 E2.32833
G1 X153.939 Y63.799 E2.35459
G1 X153.839 Y63.015 E2.38088
G1 X153.816 Y62.42 E2.40068
G1 X153.816 Y45.654 E2.95832
G1 X153.856 Y44.865 E2.9846
G1 X153.975 Y44.085 E3.01084
G1 X154.173 Y43.32 E3.03712
G0 F6000 X154.573 Y43.383
G1 F1200 X154.847 Y42.664 E3.06271
G1 X155.194 Y41.978 E3.08828
G1 X155.61 Y41.331 E3.11387
G1 X156.091 Y40.731 E3.13944
G1 X156.383 Y40.421 E3.15361
G1 X156.5 Y40.304 E3.15911
G1 X157.072 Y39.79 E3.18469
G1 X157.694 Y39.337 E3.21028
G1 X158.359 Y38.951 E3.23586
G1 X159.061 Y38.636 E3.26145
G1 X159.792 Y38.396 E3.28704
G1 X160.543 Y38.233 E3.3126
G1 X161.308 Y38.149 E3.33819
G1 X161.733 Y38.137 E3.35233
G1 X165.799 Y38.137 E3.48757
G1 X166.567 Y38.177 E3.51315
G1 X167.327 Y38.296 E3.53873
G1 X168.07 Y38.494 E3.56431
G1 X168.789 Y38.768 E3.5899
G1 X169.475 Y39.115 E3.61547
G1 X170.122 Y39.531 E3.64105
G1 X170.722 Y40.012 E3.66663
G1 X171.032 Y40.304 E3.6808
G1 X171.149 Y40.421 E3.6863
G1 X171.663 Y40.993 E3.71188
G1 X172.116 Y41.615 E3.73747
G1 X172.502 Y42.28 E3.76304
G1 X172.817 Y42.982 E3.78863
G1 X173.057 Y43.713 E3.81422
G1 X173.22 Y44.464 E3.83978
G1 X173.304 Y45.229 E3.86538
G1 X173.316 Y45.654 E3.87952
G1 X173.316 Y62.42 E4.43716
G1 X173.276 Y63.188 E4.46274
G1 X173.157 Y63.948 E4.48833
G1 X172.959 Y64.691 E4.5139
G1 X172.685 Y65.41 E4.53949
G1 X172.338 Y66.096 E4.56506
G1 X171.922 Y66.743 E4.59065
G1 X171.441 Y67.343 E4.61622
G1 X171.149 Y67.653 E4.63039
G1 X171.032 Y67.77 E4.63589
G1 X170.46 Y68.284 E4.66147
G1 X169.838 Y68.737 E4.68706
G1 X169.173 Y69.123 E4.71263
G1 X168.471 Y69.438 E4.73823
G1 X167.74 Y69.678 E4.76382
G1 X166.989 Y69.841 E4.78938
G1 X166.224 Y69.925 E4.81497
G1 X165.799 Y69.937 E4.82911
G1 X161.733 Y69.937 E4.96435
G1 X160.965 Y69.897 E4.98993
G1 X160.205 Y69.778 E5.01551
G1 X159.462 Y69.58 E5.04109
G1 X158.743 Y69.306 E5.06668
G1 X158.057 Y68.959 E5.09225
G1 X157.41 Y68.543 E5.11783
G1 X156.81 Y68.062 E5.14341
G1 X156.5 Y67.77 E5.15757
G1 X156.383 Y67.653 E5.16308
G1 X155.869 Y67.081 E5.18866
G1 X155.416 Y66.459 E5.21425
G1 X155.03 Y65.794 E5.23982
G1 X154.715 Y65.092 E5.26541
G1 X154.475 Y64.361 E5.291
G1 X154.312 Y63.61 E5.31656
G1 X154.228 Y62.845 E5.34216
G1 X154.216 Y62.42 E5.3563
G1 X154.216 Y45.654 E5.91394
G1 X154.256 Y44.886 E5.93952
G1 X154.375 Y44.126 E5.96511
G1 X154.573 Y43.383 E5.99068
G0 F6000 X154.973 Y43.447
G1 F1200 X155.246 Y42.751 E6.01555
G1 X155.593 Y42.088 E6.04044
G1 X156.008 Y41.465 E6.06533
G1 X156.666 Y40.704 E6.09879
G1 X156.783 Y40.587 E6.1043
G1 X157.34 Y40.087 E6.12919
G1 X157.946 Y39.65 E6.15404
G1 X158.596 Y39.279 E6.17893
G1 X159.282 Y38.98 E6.20382
G1 X159.996 Y38.756 E6.22871
G1 X160.729 Y38.609 E6.25358
G1 X161.733 Y38.537 E6.28706
G1 X165.799 Y38.537 E6.42229
G1 X166.546 Y38.577 E6.44717
G1 X167.284 Y38.696 E6.47204
G1 X168.006 Y38.894 E6.49694
G1 X168.702 Y39.167 E6.5218
G1 X169.365 Y39.514 E6.54669
G1 X169.988 Y39.929 E6.57159
G1 X170.749 Y40.587 E6.60505
G1 X170.866 Y40.704 E6.61055
G1 X171.366 Y41.261 E6.63545
G1 X171.803 Y41.867 E6.6603
G1 X172.174 Y42.517 E6.68519
G1 X172.473 Y43.203 E6.71008
G1 X172.697 Y43.917 E6.73497
G1 X172.844 Y44.65 E6.75983
G1 X172.916 Y45.654 E6.79331
G1 X172.916 Y62.42 E7.35095
G1 X172.876 Y63.167 E7.37583
G1 X172.757 Y63.905 E7.4007
G1 X172.559 Y64.627 E7.4256
G1 X172.286 Y65.323 E7.45046
G1 X171.939 Y65.986 E7.47535
G1 X171.524 Y66.609 E7.50025
G1 X170.866 Y67.37 E7.53371
G1 X170.749 Y67.487 E7.53921
G1 X170.192 Y67.987 E7.56411
G1 X169.586 Y68.424 E7.58896
G1 X168.936 Y68.795 E7.61385
G1 X168.25 Y69.094 E7.63874
G1 X167.536 Y69.318 E7.66363
G1 X166.803 Y69.465 E7.6885
G1 X165.799 Y69.537 E7.72197
G1 X161.733 Y69.537 E7.85721
G1 X160.986 Y69.497 E7.88209
G1 X160.248 Y69.378 E7.90695
G1 X159.526 Y69.18 E7.93185
G1 X158.83 Y68.907 E7.95672
G1 X158.167 Y68.56 E7.98161
G1 X157.544 Y68.145 E8.00651
G1 X156.783 Y67.487 E8.03997
G1 X156.666 Y67.37 E8.04547
G1 X156.166 Y66.813 E8.07037
G1 X155.729 Y66.207 E8.09522
G1 X155.358 Y65.557 E8.12011
G1 X155.059 Y64.871 E8.145
G1 X154.835 Y64.157 E8.16989
G1 X154.688 Y63.424 E8.19475
G1 X154.616 Y62.42 E8.22823
G1 X154.616 Y45.654 E8.78587
G1 X154.656 Y44.907 E8.81075
G1 X154.775 Y44.169 E8.83561
G1 X154.973 Y43.447 E8.86051
G0 F6000 X155.373 Y43.513
G1 F1200 X155.646 Y42.84 E8.88467
G1 X155.991 Y42.201 E8.90882
G1 X156.405 Y41.604 E8.93299
G1 X156.949 Y40.987 E8.96035
G1 X157.066 Y40.87 E8.96585
G1 X157.607 Y40.386 E8.98999
G1 X158.198 Y39.963 E9.01417
G1 X158.832 Y39.609 E9.03832
G1 X159.501 Y39.326 E9.06248
G1 X160.197 Y39.118 E9.08664
G1 X160.912 Y38.988 E9.11081
G1 X161.733 Y38.937 E9.13817
G1 X165.799 Y38.937 E9.2734
G1 X166.524 Y38.977 E9.29755
G1 X167.241 Y39.096 E9.32173
G1 X167.94 Y39.294 E9.34589
G1 X168.613 Y39.567 E9.37005
G1 X169.252 Y39.912 E9.3942
G1 X169.849 Y40.326 E9.41836
G1 X170.466 Y40.87 E9.44572
G1 X170.583 Y40.987 E9.45123
G1 X171.067 Y41.528 E9.47537
G1 X171.49 Y42.119 E9.49954
G1 X171.844 Y42.753 E9.52369
G1 X172.127 Y43.422 E9.54785
G1 X172.335 Y44.118 E9.57201
G1 X172.465 Y44.833 E9.59618
G1 X172.516 Y45.654 E9.62354
G1 X172.516 Y62.42 E10.18118
G1 X172.476 Y63.145 E10.20533
G1 X172.357 Y63.862 E10.22951
G1 X172.159 Y64.561 E10.25367
G1 X171.886 Y65.234 E10.27783
G1 X171.541 Y65.873 E10.30198
G1 X171.127 Y66.47 E10.32614
G1 X170.583 Y67.087 E10.3535
G1 X170.466 Y67.204 E10.35901
G1 X169.925 Y67.688 E10.38315
G1 X169.334 Y68.111 E10.40732
G1 X168.7 Y68.465 E10.43147
G1 X168.031 Y68.748 E10.45563
G1 X167.335 Y68.956 E10.47979
G1 X166.62 Y69.086 E10.50396
G1 X165.799 Y69.137 E10.53132
G1 X161.733 Y69.137 E10.66656
G1 X161.008 Y69.097 E10.69071
G1 X160.291 Y68.978 E10.71488
G1 X159.592 Y68.78 E10.73905
G1 X158.919 Y68.507 E10.7632
G1 X158.28 Y68.162 E10.78736
G1 X157.683 Y67.748 E10.81152
G1 X157.066 Y67.204 E10.83888
G1 X156.949 Y67.087 E10.84438
G1 X156.465 Y66.546 E10.86853
G1 X156.042 Y65.955 E10.8927
G1 X155.688 Y65.321 E10.91685
G1 X155.405 Y64.652 E10.94101
G1 X155.197 Y63.956 E10.96517
G1 X155.067 Y63.241 E10.98934
G1 X155.016 Y62.42 E11.0167
G1 X155.016 Y45.654 E11.57434
G1 X155.056 Y44.929 E11.59849
G1 X155.175 Y44.212 E11.62266
G1 X155.373 Y43.513 E11.64683
G0 F6000 X155.773 Y43.582
G1 F1200 X156.045 Y42.933 E11.67023
G1 X156.39 Y42.319 E11.69366
G1 X156.801 Y41.748 E11.71706
G1 X157.232 Y41.27 E11.73846
G1 X157.349 Y41.153 E11.74397
G1 X157.874 Y40.684 E11.76738
G1 X158.449 Y40.278 E11.79079
G1 X159.067 Y39.94 E11.81422
G1 X159.718 Y39.673 E11.83762
G1 X160.396 Y39.483 E11.86104
G1 X161.091 Y39.37 E11.88446
G1 X161.733 Y39.337 E11.90584
G1 X165.799 Y39.337 E12.04108
G1 X166.502 Y39.377 E12.0645
G1 X167.196 Y39.496 E12.08792
G1 X167.871 Y39.694 E12.11131
G1 X168.52 Y39.966 E12.13472
G1 X169.134 Y40.311 E12.15814
G1 X169.705 Y40.722 E12.18154
G1 X170.183 Y41.153 E12.20295
G1 X170.3 Y41.27 E12.20845
G1 X170.769 Y41.795 E12.23187
G1 X171.175 Y42.37 E12.25528
G1 X171.513 Y42.988 E12.27871
G1 X171.78 Y43.639 E12.30211
G1 X171.97 Y44.317 E12.32553
G1 X172.083 Y45.012 E12.34895
G1 X172.116 Y45.654 E12.37033
G1 X172.116 Y62.42 E12.92797
G1 X172.076 Y63.123 E12.95139
G1 X171.957 Y63.817 E12.97481
G1 X171.759 Y64.492 E12.99821
G1 X171.487 Y65.141 E13.02161
G1 X171.142 Y65.755 E13.04504
G1 X170.731 Y66.326 E13.06843
G1 X170.3 Y66.804 E13.08984
G1 X170.183 Y66.921 E13.09535
G1 X169.658 Y67.39 E13.11876
G1 X169.083 Y67.796 E13.14217
G1 X168.465 Y68.134 E13.1656
G1 X167.814 Y68.401 E13.189
G1 X167.136 Y68.591 E13.21242
G1 X166.441 Y68.704 E13.23584
G1 X165.799 Y68.737 E13.25722
G1 X161.733 Y68.737 E13.39246
G1 X161.03 Y68.697 E13.41588
G1 X160.336 Y68.578 E13.4393
G1 X159.661 Y68.38 E13.46269
G1 X159.012 Y68.108 E13.4861
G1 X158.398 Y67.763 E13.50952
G1 X157.827 Y67.352 E13.53292
G1 X157.349 Y66.921 E13.55433
G1 X157.232 Y66.804 E13.55983
G1 X156.763 Y66.279 E13.58325
G1 X156.357 Y65.704 E13.60666
G1 X156.019 Y65.086 E13.63009
G1 X155.752 Y64.435 E13.65349
G1 X155.562 Y63.757 E13.67691
G1 X155.449 Y63.062 E13.70033
G1 X155.416 Y62.42 E13.72171
G1 X155.416 Y45.654 E14.27935
G1 X155.456 Y44.951 E14.30277
G1 X155.575 Y44.257 E14.32619
G1 X155.773 Y43.582 E14.34958
G0 F6000 X156.172 Y43.652
G1 F1200 X156.444 Y43.028 E14.37222
G1 X156.788 Y42.44 E14.39488
G1 X157.198 Y41.896 E14.41754
G1 X157.515 Y41.553 E14.43307
G1 X157.632 Y41.436 E14.43858
G1 X158.141 Y40.983 E14.46124
G1 X158.699 Y40.594 E14.48386
G1 X159.299 Y40.272 E14.50651
G1 X159.933 Y40.023 E14.52917
G1 X160.592 Y39.85 E14.55183
G1 X161.266 Y39.756 E14.57446
G1 X161.733 Y39.737 E14.59001
G1 X165.799 Y39.737 E14.72524
G1 X166.479 Y39.777 E14.7479
G1 X167.149 Y39.896 E14.77053
G1 X167.801 Y40.093 E14.79319
G1 X168.425 Y40.365 E14.81583
G1 X169.013 Y40.709 E14.83848
G1 X169.557 Y41.119 E14.86114
G1 X169.9 Y41.436 E14.87668
G1 X170.017 Y41.553 E14.88218
G1 X170.47 Y42.062 E14.90484
G1 X170.859 Y42.62 E14.92747
G1 X171.181 Y43.22 E14.95011
G1 X171.43 Y43.854 E14.97277
G1 X171.603 Y44.513 E14.99543
G1 X171.697 Y45.187 E15.01806
G1 X171.716 Y45.654 E15.03361
G1 X171.716 Y62.42 E15.59125
G1 X171.676 Y63.1 E15.6139
G1 X171.557 Y63.77 E15.63654
G1 X171.36 Y64.422 E15.65919
G1 X171.088 Y65.046 E15.68183
G1 X170.744 Y65.634 E15.70449
G1 X170.334 Y66.178 E15.72715
G1 X170.017 Y66.521 E15.74268
G1 X169.9 Y66.638 E15.74818
G1 X169.391 Y67.091 E15.77085
G1 X168.833 Y67.48 E15.79347
G1 X168.233 Y67.802 E15.81612
G1 X167.599 Y68.051 E15.83877
G1 X166.94 Y68.224 E15.86144
G1 X166.266 Y68.318 E15.88407
G1 X165.799 Y68.337 E15.89962
G1 X161.733 Y68.337 E16.03485
G1 X161.053 Y68.297 E16.05751
G1 X160.383 Y68.178 E16.08014
G1 X159.731 Y67.981 E16.10279
G1 X159.107 Y67.709 E16.12543
G1 X158.519 Y67.365 E16.14809
G1 X157.975 Y66.955 E16.17075
G1 X157.632 Y66.638 E16.18628
G1 X157.515 Y66.521 E16.19179
G1 X157.062 Y66.012 E16.21445
G1 X156.673 Y65.454 E16.23707
G1 X156.351 Y64.854 E16.25972
G1 X156.102 Y64.22 E16.28238
G1 X155.929 Y63.561 E16.30504
G1 X155.835 Y62.887 E16.32767
G1 X155.816 Y62.42 E16.34322
G1 X155.816 Y45.654 E16.90086
G1 X155.856 Y44.974 E16.92351
G1 X155.975 Y44.304 E16.94615
G1 X156.172 Y43.652 E16.9688
G0 F6000 X156.375 Y44.352
G1 F1200 X156.572 Y43.725 E16.99066
G1 X156.844 Y43.127 E17.01251
G1 X157.186 Y42.566 E17.03436
G1 X157.798 Y41.836 E17.06605
G1 X157.915 Y41.719 E17.07155
G1 X158.407 Y41.283 E17.09341
G1 X158.948 Y40.911 E17.11525
G1 X159.53 Y40.607 E17.13709
G1 X160.145 Y40.376 E17.15894
G1 X160.784 Y40.221 E17.18081
G1 X161.733 Y40.137 E17.2125
G1 X165.799 Y40.137 E17.34773
G1 X166.455 Y40.177 E17.36959
G1 X167.101 Y40.296 E17.39144
G1 X167.728 Y40.493 E17.4133
G1 X168.326 Y40.765 E17.43515
G1 X168.887 Y41.107 E17.457
G1 X169.617 Y41.719 E17.48869
G1 X169.734 Y41.836 E17.49419
G1 X170.17 Y42.328 E17.51605
G1 X170.542 Y42.869 E17.53789
G1 X170.846 Y43.451 E17.55973
G1 X171.077 Y44.066 E17.58158
G1 X171.232 Y44.705 E17.60345
G1 X171.316 Y45.654 E17.63514
G1 X171.316 Y62.42 E18.19278
G1 X171.276 Y63.076 E18.21464
G1 X171.157 Y63.722 E18.23648
G1 X170.96 Y64.349 E18.25834
G1 X170.688 Y64.947 E18.28019
G1 X170.346 Y65.508 E18.30205
G1 X169.734 Y66.238 E18.33373
G1 X169.617 Y66.355 E18.33923
G1 X169.125 Y66.791 E18.3611
G1 X168.584 Y67.163 E18.38293
G1 X168.002 Y67.467 E18.40477
G1 X167.387 Y67.698 E18.42662
G1 X166.748 Y67.853 E18.44849
G1 X165.799 Y67.937 E18.48018
G1 X161.733 Y67.937 E18.61542
G1 X161.077 Y67.897 E18.63728
G1 X160.431 Y67.778 E18.65912
G1 X159.804 Y67.581 E18.68098
G1 X159.206 Y67.309 E18.70283
G1 X158.645 Y66.967 E18.72469
G1 X157.915 Y66.355 E18.75637
G1 X157.798 Y66.238 E18.76187
G1 X157.362 Y65.746 E18.78374
G1 X156.99 Y65.205 E18.80557
G1 X156.686 Y64.623 E18.82741
G1 X156.455 Y64.008 E18.84926
G1 X156.3 Y63.369 E18.87113
G1 X156.216 Y62.42 E18.90282
G1 X156.216 Y45.654 E19.46046
G1 X156.256 Y44.998 E19.48232
G1 X156.375 Y44.352 E19.50417
G0 F6000 X156.775 Y44.402
G1 F1200 X156.972 Y43.802 E19.52517
G1 X157.243 Y43.23 E19.54622
G1 X157.583 Y42.698 E19.56722
G1 X158.08 Y42.118 E19.59263
G1 X158.197 Y42.001 E19.59813
G1 X158.672 Y41.584 E19.61915
G1 X159.195 Y41.229 E19.64018
G1 X159.759 Y40.943 E19.66121
G1 X160.354 Y40.731 E19.68222
G1 X160.972 Y40.595 E19.70326
G1 X161.733 Y40.537 E19.72865
G1 X165.799 Y40.537 E19.86388
G1 X166.43 Y40.577 E19.88491
G1 X167.051 Y40.696 E19.90594
G1 X167.651 Y40.893 E19.92695
G1 X168.223 Y41.164 E19.948
G1 X168.755 Y41.504 E19.969
G1 X169.335 Y42.001 E19.9944
G1 X169.452 Y42.118 E19.99991
G1 X169.869 Y42.593 E20.02093
G1 X170.224 Y43.116 E20.04195
G1 X170.51 Y43.68 E20.06299
G1 X170.722 Y44.275 E20.084
G1 X170.858 Y44.893 E20.10504
G1 X170.916 Y45.654 E20.13043
G1 X170.916 Y62.42 E20.68807
G1 X170.876 Y63.051 E20.70909
G1 X170.757 Y63.672 E20.73013
G1 X170.56 Y64.272 E20.75113
G1 X170.289 Y64.844 E20.77218
G1 X169.949 Y65.376 E20.79318
G1 X169.452 Y65.956 E20.81859
G1 X169.335 Y66.073 E20.82409
G1 X168.86 Y66.49 E20.84511
G1 X168.337 Y66.845 E20.86614
G1 X167.773 Y67.131 E20.88717
G1 X167.178 Y67.343 E20.90818
G1 X166.56 Y67.479 E20.92922
G1 X165.799 Y67.537 E20.95461
G1 X161.733 Y67.537 E21.08984
G1 X161.102 Y67.497 E21.11087
G1 X160.481 Y67.378 E21.1319
G1 X159.881 Y67.181 E21.15291
G1 X159.309 Y66.91 E21.17396
G1 X158.777 Y66.57 E21.19496
G1 X158.197 Y66.073 E21.22036
G1 X158.08 Y65.956 E21.22587
G1 X157.663 Y65.481 E21.24689
G1 X157.308 Y64.958 E21.26791
G1 X157.022 Y64.394 E21.28895
G1 X156.81 Y63.799 E21.30995
G1 X156.674 Y63.181 E21.331
G1 X156.616 Y62.42 E21.35638
G1 X156.616 Y45.654 E21.91402
