;FLAVOR:UltiGCode
;TIME:13726
;MATERIAL:31187
;MATERIAL2:0
;NOZZLE_DIAMETER:0.4
;MINX:42.15
;MINY:42.15
;MINZ:0.2
;MAXX:180.85
;MAXY:180.85
;MAXZ:4
;Generated with Cura_SteamEngine 4.13.1
M82 ;absolute extrusion mode
G0 F3000 Y50 ;avoid prime blob
G92 E0
G92 E0
G10
;LAYER_COUNT:20
;LAYER:0
M107
G0 F4500 X45.618 Y46.237 Z0.2
;TYPE:SKIRT
G11
G1 F1800 X46.237 Y45.618 E0.06128
G1 X46.825 Y45.085 E0.11683
G1 X47.296 Y44.73 E0.15812
G1 X47.999 Y44.239 E0.21814
G1 X48.671 Y43.818 E0.27365
G1 X49.163 Y43.566 E0.31235
G1 X49.943 Y43.2 E0.37266
G1 X50.677 Y42.899 E0.42819
G1 X51.245 Y42.724 E0.46979
G1 X52.101 Y42.494 E0.53184
G1 X52.876 Y42.327 E0.58733
G1 X53.463 Y42.254 E0.62874
G1 X54.315 Y42.18 E0.68861
G1 X54.996 Y42.15 E0.73632
G1 X168.004 Y42.15 E8.64688
G1 X168.685 Y42.18 E8.6946
G1 X169.537 Y42.254 E8.75446
G1 X170.323 Y42.362 E8.81
G1 X170.899 Y42.494 E8.85136
G1 X171.755 Y42.724 E8.91341
G1 X172.51 Y42.968 E8.96895
G1 X173.057 Y43.2 E9.01054
G1 X173.837 Y43.566 E9.07086
G1 X174.538 Y43.939 E9.12644
G1 X175.001 Y44.239 E9.16506
G1 X175.704 Y44.73 E9.22508
G1 X176.331 Y45.216 E9.28061
G1 X176.763 Y45.618 E9.32192
G1 X177.382 Y46.237 E9.3832
G1 X177.915 Y46.825 E9.43875
G1 X178.27 Y47.296 E9.48004
G1 X178.761 Y47.999 E9.54006
G1 X179.182 Y48.671 E9.59557
G1 X179.434 Y49.163 E9.63427
G1 X179.8 Y49.943 E9.69458
G1 X180.101 Y50.677 E9.75011
G1 X180.276 Y51.245 E9.79172
G1 X180.506 Y52.101 E9.85376
G1 X180.673 Y52.876 E9.90926
G1 X180.746 Y53.456 E9.95018
G1 X180.82 Y54.3 E10.00948
G1 X180.85 Y54.988 E10.05769
G1 X180.85 Y168.01 E17.96923
G1 X180.82 Y168.696 E18.01729
G1 X180.746 Y169.542 E18.07674
G1 X180.637 Y170.328 E18.13229
G1 X180.507 Y170.896 E18.17308
G1 X180.278 Y171.75 E18.23497
G1 X180.034 Y172.505 E18.29051
G1 X179.801 Y173.056 E18.33239
G1 X179.434 Y173.838 E18.39285
G1 X179.061 Y174.538 E18.44838
G1 X178.761 Y175.001 E18.48699
G1 X178.27 Y175.704 E18.54702
G1 X177.784 Y176.331 E18.60255
G1 X177.382 Y176.763 E18.64386
G1 X176.763 Y177.382 E18.70514
G1 X176.175 Y177.915 E18.76069
G1 X175.704 Y178.27 E18.80198
G1 X175.001 Y178.761 E18.862
G1 X174.329 Y179.182 E18.91751
G1 X173.837 Y179.434 E18.9562
G1 X173.057 Y179.8 E19.01652
G1 X172.323 Y180.101 E19.07205
G1 X171.755 Y180.276 E19.11365
G1 X170.899 Y180.506 E19.1757
G1 X170.124 Y180.673 E19.23119
G1 X169.537 Y180.746 E19.2726
G1 X168.685 Y180.82 E19.33246
G1 X168.004 Y180.85 E19.38018
G1 X54.996 Y180.85 E27.29074
G1 X54.315 Y180.82 E27.33846
G1 X53.463 Y180.746 E27.39832
G1 X52.677 Y180.638 E27.45386
G1 X52.101 Y180.506 E27.49522
G1 X51.245 Y180.276 E27.55727
G1 X50.49 Y180.032 E27.61281
G1 X49.943 Y179.8 E27.6544
G1 X49.163 Y179.434 E27.71471
G1 X48.462 Y179.061 E27.7703
G1 X47.999 Y178.761 E27.80892
G1 X47.296 Y178.27 E27.86894
G1 X46.669 Y177.784 E27.92447
G1 X46.237 Y177.382 E27.96578
G1 X45.618 Y176.763 E28.02706
G1 X45.085 Y176.175 E28.08261
G1 X44.73 Y175.704 E28.1239
G1 X44.239 Y175.001 E28.18392
G1 X43.818 Y174.329 E28.23943
G1 X43.566 Y173.838 E28.27806
G1 X43.199 Y173.056 E28.33853
G1 X42.899 Y172.321 E28.3941
G1 X42.722 Y171.75 E28.43595
G1 X42.493 Y170.896 E28.49784
G1 X42.326 Y170.12 E28.5534
G1 X42.254 Y169.544 E28.59404
G1 X42.18 Y168.7 E28.65334
G1 X42.15 Y168.012 E28.70155
G1 X42.15 Y54.99 E36.61309
G1 X42.18 Y54.304 E36.66116
G1 X42.254 Y53.458 E36.7206
G1 X42.363 Y52.672 E36.77615
G1 X42.493 Y52.104 E36.81694
G1 X42.722 Y51.25 E36.87883
G1 X42.966 Y50.495 E36.93437
G1 X43.199 Y49.944 E36.97625
G1 X43.566 Y49.162 E37.03671
G1 X43.939 Y48.462 E37.09224
G1 X44.239 Y47.999 E37.13086
G1 X44.73 Y47.296 E37.19088
G1 X45.216 Y46.669 E37.24641
G1 X45.618 Y46.237 E37.28772
G0 F4500 X45.865 Y46.484
G1 F1800 X46.484 Y45.865 E37.349
G1 X47.06 Y45.346 E37.40327
G1 X47.496 Y45.017 E37.4415
G1 X48.199 Y44.526 E37.50153
G1 X48.857 Y44.115 E37.55584
G1 X49.311 Y43.883 E37.59152
G1 X50.091 Y43.517 E37.65184
G1 X50.81 Y43.224 E37.70618
G1 X51.335 Y43.062 E37.74464
G1 X52.191 Y42.832 E37.80669
G1 X52.95 Y42.669 E37.86103
G1 X53.493 Y42.602 E37.89933
G1 X54.345 Y42.528 E37.95919
G1 X54.996 Y42.5 E38.00481
G1 X168.004 Y42.5 E45.91537
G1 X168.655 Y42.528 E45.96098
G1 X169.507 Y42.602 E46.02084
G1 X170.275 Y42.709 E46.07512
G1 X170.809 Y42.832 E46.11348
G1 X171.665 Y43.062 E46.17553
G1 X172.402 Y43.301 E46.22976
G1 X172.909 Y43.517 E46.26834
G1 X173.689 Y43.883 E46.32865
G1 X174.373 Y44.248 E46.38292
G1 X174.801 Y44.526 E46.41865
G1 X175.504 Y45.017 E46.47867
G1 X176.116 Y45.493 E46.53294
G1 X176.516 Y45.865 E46.57118
G1 X177.135 Y46.484 E46.63246
G1 X177.654 Y47.06 E46.68673
G1 X177.983 Y47.496 E46.72496
G1 X178.474 Y48.199 E46.78499
G1 X178.885 Y48.857 E46.8393
G1 X179.117 Y49.311 E46.87498
G1 X179.483 Y50.091 E46.9353
G1 X179.776 Y50.81 E46.98965
G1 X179.938 Y51.335 E47.02811
G1 X180.168 Y52.191 E47.09015
G1 X180.331 Y52.95 E47.14449
G1 X180.397 Y53.487 E47.18236
G1 X180.471 Y54.331 E47.24167
G1 X180.5 Y54.988 E47.28771
G1 X180.5 Y168.01 E55.19925
G1 X180.471 Y168.666 E55.24521
G1 X180.397 Y169.512 E55.30466
G1 X180.29 Y170.28 E55.35894
G1 X180.169 Y170.805 E55.39665
G1 X179.94 Y171.659 E55.45854
G1 X179.701 Y172.397 E55.51284
G1 X179.484 Y172.907 E55.55164
G1 X179.117 Y173.689 E55.61211
G1 X178.752 Y174.373 E55.66638
G1 X178.474 Y174.801 E55.7021
G1 X177.983 Y175.504 E55.76213
G1 X177.507 Y176.116 E55.8164
G1 X177.135 Y176.516 E55.85464
G1 X176.516 Y177.135 E55.91592
G1 X175.94 Y177.654 E55.97019
G1 X175.504 Y177.983 E56.00842
G1 X174.801 Y178.474 E56.06845
G1 X174.143 Y178.885 E56.12275
G1 X173.689 Y179.117 E56.15844
G1 X172.909 Y179.483 E56.21876
G1 X172.19 Y179.776 E56.2731
G1 X171.665 Y179.938 E56.31156
G1 X170.809 Y180.168 E56.37361
G1 X170.05 Y180.331 E56.42795
G1 X169.507 Y180.398 E56.46625
G1 X168.655 Y180.472 E56.52611
G1 X168.004 Y180.5 E56.57173
G1 X54.996 Y180.5 E64.48229
G1 X54.345 Y180.472 E64.5279
G1 X53.493 Y180.398 E64.58776
G1 X52.725 Y180.291 E64.64204
G1 X52.191 Y180.168 E64.6804
G1 X51.335 Y179.938 E64.74245
G1 X50.598 Y179.699 E64.79668
G1 X50.091 Y179.483 E64.83526
G1 X49.311 Y179.117 E64.89557
G1 X48.627 Y178.752 E64.94984
G1 X48.199 Y178.474 E64.98557
G1 X47.496 Y177.983 E65.04559
G1 X46.884 Y177.507 E65.09986
G1 X46.484 Y177.135 E65.1381
G1 X45.865 Y176.516 E65.19938
G1 X45.346 Y175.94 E65.25365
G1 X45.017 Y175.504 E65.29188
G1 X44.526 Y174.801 E65.35191
G1 X44.115 Y174.143 E65.40622
G1 X43.883 Y173.689 E65.4419
G1 X43.516 Y172.907 E65.50237
G1 X43.223 Y172.189 E65.55666
G1 X43.06 Y171.659 E65.59547
G1 X42.831 Y170.805 E65.65736
G1 X42.669 Y170.046 E65.71169
G1 X42.603 Y169.513 E65.74929
G1 X42.529 Y168.669 E65.80859
G1 X42.5 Y168.012 E65.85463
G1 X42.5 Y54.99 E73.76617
G1 X42.529 Y54.334 E73.81213
G1 X42.603 Y53.488 E73.87158
G1 X42.71 Y52.72 E73.92586
G1 X42.831 Y52.195 E73.96357
G1 X43.06 Y51.341 E74.02546
G1 X43.299 Y50.603 E74.07976
G1 X43.516 Y50.093 E74.11856
G1 X43.883 Y49.311 E74.17903
G1 X44.248 Y48.627 E74.2333
G1 X44.526 Y48.199 E74.26903
G1 X45.017 Y47.496 E74.32905
G1 X45.493 Y46.884 E74.38332
G1 X45.865 Y46.484 E74.42156
G0 F4500 X46.113 Y46.732
G1 F1800 X46.732 Y46.113 E74.48284
G1 X47.295 Y45.606 E74.53587
G1 X47.697 Y45.304 E74.57107
G1 X48.4 Y44.813 E74.63109
G1 X49.043 Y44.412 E74.68414
G1 X49.46 Y44.2 E74.71688
G1 X50.24 Y43.834 E74.7772
G1 X50.942 Y43.548 E74.83026
G1 X51.426 Y43.4 E74.86569
G1 X52.282 Y43.17 E74.92773
G1 X53.023 Y43.012 E74.98077
G1 X53.523 Y42.951 E75.01603
G1 X54.375 Y42.877 E75.07589
G1 X54.996 Y42.85 E75.1194
G1 X168.004 Y42.85 E83.02996
G1 X168.625 Y42.877 E83.07347
G1 X169.477 Y42.951 E83.13334
G1 X170.227 Y43.056 E83.18635
G1 X170.718 Y43.17 E83.22163
G1 X171.574 Y43.4 E83.28368
G1 X172.294 Y43.635 E83.3367
G1 X172.76 Y43.834 E83.37217
G1 X173.54 Y44.2 E83.43248
G1 X174.208 Y44.557 E83.4855
G1 X174.6 Y44.813 E83.51827
G1 X175.303 Y45.304 E83.57829
G1 X175.901 Y45.77 E83.63136
G1 X176.268 Y46.113 E83.66653
G1 X176.887 Y46.732 E83.7278
G1 X177.394 Y47.295 E83.78084
G1 X177.696 Y47.697 E83.81604
G1 X178.187 Y48.4 E83.87606
G1 X178.588 Y49.043 E83.92911
G1 X178.8 Y49.46 E83.96185
G1 X179.166 Y50.24 E84.02216
G1 X179.452 Y50.942 E84.07522
G1 X179.6 Y51.426 E84.11065
G1 X179.83 Y52.282 E84.1727
G1 X179.988 Y53.023 E84.22573
G1 X180.049 Y53.517 E84.26058
G1 X180.123 Y54.361 E84.31988
G1 X180.15 Y54.988 E84.36381
G1 X180.15 Y168.01 E92.27535
G1 X180.123 Y168.635 E92.31915
G1 X180.049 Y169.481 E92.37859
G1 X179.943 Y170.231 E92.43161
G1 X179.831 Y170.714 E92.46632
G1 X179.602 Y171.568 E92.52821
G1 X179.368 Y172.288 E92.58121
G1 X179.167 Y172.758 E92.61699
G1 X178.8 Y173.54 E92.67746
G1 X178.443 Y174.208 E92.73048
G1 X178.187 Y174.6 E92.76325
G1 X177.696 Y175.303 E92.82327
G1 X177.23 Y175.901 E92.87634
G1 X176.887 Y176.268 E92.91151
G1 X176.268 Y176.887 E92.97278
G1 X175.705 Y177.394 E93.02582
G1 X175.303 Y177.696 E93.06102
G1 X174.6 Y178.187 E93.12104
G1 X173.957 Y178.588 E93.17409
G1 X173.54 Y178.8 E93.20683
G1 X172.76 Y179.166 E93.26714
G1 X172.058 Y179.452 E93.3202
G1 X171.574 Y179.6 E93.35563
G1 X170.718 Y179.83 E93.41768
G1 X169.977 Y179.988 E93.47071
G1 X169.477 Y180.049 E93.50597
G1 X168.625 Y180.123 E93.56584
G1 X168.004 Y180.15 E93.60935
G1 X54.996 Y180.15 E101.51991
G1 X54.375 Y180.123 E101.56342
G1 X53.523 Y180.049 E101.62329
G1 X52.773 Y179.944 E101.6763
G1 X52.282 Y179.83 E101.71158
G1 X51.426 Y179.6 E101.77363
G1 X50.706 Y179.365 E101.82664
G1 X50.24 Y179.166 E101.86211
G1 X49.46 Y178.8 E101.92243
G1 X48.792 Y178.443 E101.97544
G1 X48.4 Y178.187 E102.00822
G1 X47.697 Y177.696 E102.06824
G1 X47.099 Y177.23 E102.12131
G1 X46.732 Y176.887 E102.15647
G1 X46.113 Y176.268 E102.21775
G1 X45.606 Y175.705 E102.27079
G1 X45.304 Y175.303 E102.30598
G1 X44.813 Y174.6 E102.36601
G1 X44.412 Y173.957 E102.41905
G1 X44.2 Y173.54 E102.4518
G1 X43.833 Y172.758 E102.51227
G1 X43.548 Y172.057 E102.56524
G1 X43.398 Y171.568 E102.60104
G1 X43.169 Y170.714 E102.66293
G1 X43.012 Y169.973 E102.71595
G1 X42.951 Y169.483 E102.75052
G1 X42.877 Y168.639 E102.80983
G1 X42.85 Y168.012 E102.85376
G1 X42.85 Y54.99 E110.7653
G1 X42.877 Y54.365 E110.80909
G1 X42.951 Y53.519 E110.86853
G1 X43.057 Y52.769 E110.92156
G1 X43.169 Y52.286 E110.95626
G1 X43.398 Y51.432 E111.01815
G1 X43.632 Y50.712 E111.07115
G1 X43.833 Y50.242 E111.10693
G1 X44.2 Y49.46 E111.1674
G1 X44.557 Y48.792 E111.22042
G1 X44.813 Y48.4 E111.25319
G1 X45.304 Y47.697 E111.31322
G1 X45.77 Y47.099 E111.36629
G1 X46.113 Y46.732 E111.40145
G0 F4500 X46.36 Y46.979
G1 F1800 X46.979 Y46.36 E111.46273
G1 X47.529 Y45.867 E111.51443
G1 X47.897 Y45.591 E111.54663
G1 X48.6 Y45.1 E111.60665
G1 X49.228 Y44.71 E111.6584
G1 X49.609 Y44.516 E111.68833
G1 X50.389 Y44.15 E111.74864
G1 X51.073 Y43.873 E111.8003
G1 X51.517 Y43.738 E111.83278
G1 X52.373 Y43.508 E111.89483
G1 X53.096 Y43.355 E111.94656
G1 X53.553 Y43.3 E111.97878
G1 X54.405 Y43.226 E112.03865
G1 X54.996 Y43.2 E112.08006
G1 X168.004 Y43.2 E119.99062
G1 X168.595 Y43.226 E120.03203
G1 X169.447 Y43.3 E120.09189
G1 X170.178 Y43.403 E120.14357
G1 X170.627 Y43.508 E120.17584
G1 X171.483 Y43.738 E120.23789
G1 X172.185 Y43.968 E120.2896
G1 X172.611 Y44.15 E120.32203
G1 X173.391 Y44.516 E120.38234
G1 X174.042 Y44.866 E120.43408
G1 X174.4 Y45.1 E120.46402
G1 X175.103 Y45.591 E120.52404
G1 X175.685 Y46.046 E120.57575
G1 X176.021 Y46.36 E120.60794
G1 X176.64 Y46.979 E120.66922
G1 X177.133 Y47.529 E120.72092
G1 X177.409 Y47.897 E120.75312
G1 X177.9 Y48.6 E120.81315
G1 X178.29 Y49.228 E120.8649
G1 X178.484 Y49.609 E120.89482
G1 X178.85 Y50.389 E120.95514
G1 X179.127 Y51.073 E121.00679
G1 X179.262 Y51.517 E121.03928
G1 X179.492 Y52.373 E121.10132
G1 X179.645 Y53.096 E121.15305
G1 X179.7 Y53.548 E121.18493
G1 X179.774 Y54.392 E121.24423
G1 X179.8 Y54.988 E121.28599
G1 X179.8 Y168.01 E129.19753
G1 X179.774 Y168.605 E129.23922
G1 X179.7 Y169.451 E129.29867
G1 X179.596 Y170.182 E129.35036
G1 X179.493 Y170.624 E129.38212
G1 X179.264 Y171.478 E129.44402
G1 X179.034 Y172.18 E129.49573
G1 X178.85 Y172.61 E129.52847
G1 X178.483 Y173.392 E129.58893
G1 X178.134 Y174.042 E129.64058
G1 X177.9 Y174.4 E129.67052
G1 X177.409 Y175.103 E129.73054
G1 X176.954 Y175.685 E129.78225
G1 X176.64 Y176.021 E129.81445
G1 X176.021 Y176.64 E129.87572
G1 X175.471 Y177.133 E129.92743
G1 X175.103 Y177.409 E129.95963
G1 X174.4 Y177.9 E130.01965
G1 X173.772 Y178.29 E130.0714
G1 X173.391 Y178.484 E130.10133
G1 X172.611 Y178.85 E130.16164
G1 X171.927 Y179.127 E130.2133
G1 X171.483 Y179.262 E130.24578
G1 X170.627 Y179.492 E130.30783
G1 X169.904 Y179.645 E130.35956
G1 X169.447 Y179.7 E130.39178
G1 X168.595 Y179.774 E130.45164
G1 X168.004 Y179.8 E130.49305
G1 X54.996 Y179.8 E138.40361
G1 X54.405 Y179.774 E138.44502
G1 X53.553 Y179.7 E138.50489
G1 X52.822 Y179.597 E138.55656
G1 X52.373 Y179.492 E138.58884
G1 X51.517 Y179.262 E138.65089
G1 X50.815 Y179.032 E138.7026
G1 X50.389 Y178.85 E138.73502
G1 X49.609 Y178.484 E138.79533
G1 X48.958 Y178.134 E138.84707
G1 X48.6 Y177.9 E138.87701
G1 X47.897 Y177.409 E138.93704
G1 X47.315 Y176.954 E138.98875
G1 X46.979 Y176.64 E139.02094
G1 X46.36 Y176.021 E139.08222
G1 X45.867 Y175.471 E139.13392
G1 X45.591 Y175.103 E139.16612
G1 X45.1 Y174.4 E139.22615
G1 X44.71 Y173.772 E139.27789
G1 X44.517 Y173.392 E139.30773
G1 X44.15 Y172.61 E139.3682
G1 X43.872 Y171.925 E139.41994
G1 X43.736 Y171.478 E139.45265
G1 X43.507 Y170.624 E139.51454
G1 X43.354 Y169.901 E139.56627
G1 X43.3 Y169.452 E139.59793
G1 X43.226 Y168.608 E139.65724
G1 X43.2 Y168.012 E139.699
G1 X43.2 Y54.99 E147.61054
G1 X43.226 Y54.395 E147.65223
G1 X43.3 Y53.549 E147.71167
G1 X43.404 Y52.818 E147.76336
G1 X43.507 Y52.376 E147.79513
G1 X43.736 Y51.522 E147.85702
G1 X43.966 Y50.82 E147.90873
G1 X44.15 Y50.39 E147.94147
G1 X44.517 Y49.608 E148.00194
G1 X44.866 Y48.958 E148.05358
G1 X45.1 Y48.6 E148.08352
G1 X45.591 Y47.897 E148.14354
G1 X46.046 Y47.315 E148.19525
G1 X46.36 Y46.979 E148.22745
G0 F4500 X46.607 Y47.226
G1 F1800 X47.226 Y46.607 E148.28872
G1 X47.763 Y46.128 E148.3391
G1 X48.097 Y45.878 E148.3683
G1 X48.8 Y45.387 E148.42832
G1 X49.412 Y45.008 E148.47871
G1 X49.757 Y44.833 E148.50579
G1 X50.537 Y44.467 E148.56611
G1 X51.205 Y44.198 E148.61651
G1 X51.608 Y44.076 E148.64599
G1 X52.464 Y43.846 E148.70803
G1 X53.168 Y43.698 E148.75839
G1 X53.584 Y43.648 E148.78772
G1 X54.436 Y43.574 E148.84759
G1 X54.996 Y43.55 E148.88682
G1 X168.004 Y43.55 E156.79738
G1 X168.564 Y43.574 E156.83662
G1 X169.416 Y43.648 E156.89648
G1 X170.128 Y43.75 E156.94683
G1 X170.536 Y43.846 E156.97617
G1 X171.392 Y44.076 E157.03822
G1 X172.076 Y44.301 E157.08862
G1 X172.463 Y44.467 E157.1181
G1 X173.243 Y44.833 E157.17841
G1 X173.876 Y45.175 E157.22877
G1 X174.2 Y45.387 E157.25588
G1 X174.903 Y45.878 E157.3159
G1 X175.469 Y46.322 E157.36626
G1 X175.774 Y46.607 E157.39548
G1 X176.393 Y47.226 E157.45675
G1 X176.872 Y47.763 E157.50713
G1 X177.122 Y48.097 E157.53633
G1 X177.613 Y48.8 E157.59635
G1 X177.992 Y49.412 E157.64674
G1 X178.167 Y49.757 E157.67382
G1 X178.533 Y50.537 E157.73413
G1 X178.802 Y51.205 E157.78454
G1 X178.924 Y51.608 E157.81402
G1 X179.154 Y52.464 E157.87606
G1 X179.302 Y53.168 E157.92642
G1 X179.351 Y53.578 E157.95532
G1 X179.425 Y54.422 E158.01463
G1 X179.45 Y54.988 E158.05429
G1 X179.45 Y168.01 E165.96583
G1 X179.425 Y168.574 E166.00535
G1 X179.351 Y169.42 E166.06479
G1 X179.249 Y170.132 E166.11514
G1 X179.155 Y170.533 E166.14397
G1 X178.926 Y171.387 E166.20587
G1 X178.701 Y172.07 E166.2562
G1 X178.534 Y172.461 E166.28597
G1 X178.167 Y173.243 E166.34643
G1 X177.825 Y173.876 E166.3968
G1 X177.613 Y174.2 E166.4239
G1 X177.122 Y174.903 E166.48393
G1 X176.678 Y175.469 E166.53428
G1 X176.393 Y175.774 E166.5635
G1 X175.774 Y176.393 E166.62478
G1 X175.237 Y176.872 E166.67515
G1 X174.903 Y177.122 E166.70436
G1 X174.2 Y177.613 E166.76438
G1 X173.588 Y177.992 E166.81477
G1 X173.243 Y178.167 E166.84185
G1 X172.463 Y178.533 E166.90216
G1 X171.795 Y178.802 E166.95257
G1 X171.392 Y178.924 E166.98204
G1 X170.536 Y179.154 E167.04409
G1 X169.832 Y179.302 E167.09445
G1 X169.416 Y179.352 E167.12378
G1 X168.564 Y179.426 E167.18364
G1 X168.004 Y179.45 E167.22288
G1 X54.996 Y179.45 E175.13344
G1 X54.436 Y179.426 E175.17267
G1 X53.584 Y179.352 E175.23254
